src/assets/outline/VideoSquare.svg

<svg width="24" height="24" viewBox="0 0 24 24"  xmlns="http://www.w3.org/2000/svg">
<path d="M15 22.75H9C3.57 22.75 1.25 20.43 1.25 15V9C1.25 3.57 3.57 1.25 9 1.25H15C20.43 1.25 22.75 3.57 22.75 9V15C22.75 20.43 20.43 22.75 15 22.75ZM9 2.75C4.39 2.75 2.75 4.39 2.75 9V15C2.75 19.61 4.39 21.25 9 21.25H15C19.61 21.25 21.25 19.61 21.25 15V9C21.25 4.39 19.61 2.75 15 2.75H9Z" />
<path d="M10.7598 16.3701C10.3398 16.3701 9.94984 16.27 9.59984 16.07C8.79984 15.61 8.33984 14.67 8.33984 13.48V10.52C8.33984 9.34005 8.79984 8.39005 9.59984 7.93005C10.3998 7.47005 11.4398 7.54005 12.4698 8.14005L15.0398 9.62005C16.0598 10.21 16.6498 11.08 16.6498 12C16.6498 12.92 16.0598 13.79 15.0398 14.38L12.4698 15.86C11.8898 16.2 11.2998 16.3701 10.7598 16.3701ZM10.7698 9.13005C10.6098 9.13005 10.4698 9.16005 10.3598 9.23005C10.0398 9.42005 9.84984 9.89005 9.84984 10.52V13.48C9.84984 14.11 10.0298 14.58 10.3598 14.77C10.6798 14.96 11.1798 14.88 11.7298 14.56L14.2998 13.08C14.8498 12.76 15.1598 12.37 15.1598 12C15.1598 11.63 14.8498 11.23 14.2998 10.92L11.7298 9.44005C11.3698 9.23005 11.0398 9.13005 10.7698 9.13005Z" />
</svg>

<?xml version="1.0" encoding="UTF-8"?>
<svg width="24" height="24" viewBox="0 0 24 24" xmlns="http://www.w3.org/2000/svg">
 <path d="m15 22.75h-6c-5.43 0-7.75-2.32-7.75-7.75v-6c0-5.43 2.32-7.75 7.75-7.75h6c5.43 0 7.75 2.32 7.75 7.75v6c0 5.43-2.32 7.75-7.75 7.75zm-6-20c-4.61 0-6.25 1.64-6.25 6.25v6c0 4.61 1.64 6.25 6.25 6.25h6c4.61 0 6.25-1.64 6.25-6.25v-6c0-4.61-1.64-6.25-6.25-6.25h-6z"/>
 <path d="m10.76 16.37c-0.42 0-0.80996-0.1001-1.16-0.3001-0.8-0.46-1.26-1.4-1.26-2.59v-2.96c0-1.18 0.46-2.13 1.26-2.59 0.79996-0.46 1.84-0.39 2.87 0.21l2.57 1.48c1.02 0.58995 1.61 1.46 1.61 2.38s-0.59 1.79-1.61 2.38l-2.57 1.48c-0.58 0.34-1.17 0.5101-1.71 0.5101zm0.01-7.24c-0.16 0-0.3 0.03-0.41 0.1-0.32 0.19-0.50996 0.66-0.50996 1.29v2.96c0 0.63 0.17996 1.1 0.50996 1.29 0.32 0.19 0.82 0.11 1.37-0.21l2.57-1.48c0.55-0.32 0.86-0.71 0.86-1.08s-0.31-0.77-0.86-1.08l-2.57-1.48c-0.36-0.21-0.69-0.31-0.96-0.31z"/>
</svg>
